modules/hawcons-filled/icons/icon-33-award.svg

<?xml version="1.0" encoding="UTF-8" standalone="no"?>
<svg width="32px" height="32px" viewBox="0 0 32 32" version="1.1" xmlns="http://www.w3.org/2000/svg" xmlns:xlink="http://www.w3.org/1999/xlink" xmlns:sketch="http://www.bohemiancoding.com/sketch/ns">
    <!-- Generator: Sketch 3.0.3 (7891) - http://www.bohemiancoding.com/sketch -->
    <title>icon 33 award</title>
    <desc>Created with Sketch.</desc>
    <defs></defs>
    <g id="Page-1" stroke="none" stroke-width="1" fill="none" fill-rule="evenodd" sketch:type="MSPage">
        <g id="icon-33-award" sketch:type="MSArtboardGroup" fill="#929292">
            <path d="M15.626362,20.9921584 L11.6014826,31.4773277 L9.87584513,27.6014826 L6,29.32712 L9.97789993,18.9643364 C11.5584809,20.1664891 13.5077558,20.9088828 15.6263658,20.9921585 L15.626362,20.9921584 L15.626362,20.9921584 Z M22.0742057,18.9643364 L26.0521057,29.32712 L22.1762605,27.6014826 L20.4506231,31.4773277 L16.4257437,20.9921584 C18.5443498,20.9088828 20.4936248,20.1664891 22.0742057,18.9643364 L22.0742057,18.9643364 L22.0742057,18.9643364 Z M16.0260528,20 C20.9966156,20 25.0260528,15.9705627 25.0260528,11 C25.0260528,6.02943725 20.9966156,2 16.0260528,2 C11.0554901,2 7.02605283,6.02943725 7.02605283,11 C7.02605283,15.9705627 11.0554901,20 16.0260528,20 L16.0260528,20 Z M16.0260528,17 C19.3397613,17 22.0260528,14.3137085 22.0260528,11 C22.0260528,7.6862915 19.3397613,5 16.0260528,5 C12.7123443,5 10.0260528,7.6862915 10.0260528,11 C10.0260528,14.3137085 12.7123443,17 16.0260528,17 L16.0260528,17 Z M16.0260528,16 C18.7874766,16 21.0260528,13.7614237 21.0260528,11 C21.0260528,8.23857625 18.7874766,6 16.0260528,6 C13.2646291,6 11.0260528,8.23857625 11.0260528,11 C11.0260528,13.7614237 13.2646291,16 16.0260528,16 L16.0260528,16 Z" id="award" sketch:type="MSShapeGroup"></path>
        </g>
    </g>
</svg>

<svg width="32" height="32" viewBox="0 0 32 32" xmlns="http://www.w3.org/2000/svg"><path d="M15.626 20.992l-4.025 10.485-1.725-3.876L6 29.327l3.978-10.363a9.951 9.951 0 0 0 5.648 2.028zm6.448-2.028l3.978 10.363-3.876-1.726-1.725 3.876-4.025-10.485a9.951 9.951 0 0 0 5.648-2.028zM16.026 20a9 9 0 1 0 0-18 9 9 0 0 0 0 18zm0-3a6 6 0 1 0 0-12 6 6 0 0 0 0 12zm0-1a5 5 0 1 0 0-10 5 5 0 0 0 0 10z" fill="#929292" fill-rule="evenodd"/></svg>
